X: 1
T: Emma's Slip
M: 9/8
L: 1/8
R: slip jig
K: Dmaj
||Afg fed e3|d2A Bcd cde|f2f agf efg|f2d edc d2B|
Afg fed edc|d2A Bcd cde|f2f agf efg|fed edc d2B||
||A2a aba gag|fdA d2f efg|f3 fed cde|A3 Ace a2g|
f3 fed cAE|D2E FGA BcB|Adg f2a gec|dB/c/d efe d3||
